X:6751
T:The Fat Cat
O:england
M:4/4
L:1/8
C:Tommy Peoples
S:Tommy Peoples
R:Hornpipe
D:The Quiet Glen
K:A
A,2CE FEcB|AEFA FECE|cBBA F2EC|B,2A,B, CEEC|\
A,2CE FEcB|AEFA FECE|cBBA F2EC|B,A,CB, A,3 B,::\
~C2EC A,CEA|~c2Bc AF E2|""a6 fe|c2BA F2AF|EA,CE EFFA|\
c2Bc AF E2|""a6 BA|1F2EF A4:|2F2EC A,4|]


